X:321
T: Mabufang chuaide heixingan
N: C1819
O: China,Gansu Linxia
S: I, 124]
N: Hui
R: Xiaodiao, Yanxiqu]
M: 2/4
L: 1/16
K: F
Acd4c2 | d2f2d2cd | AGF2F4 | A2G4AG | F2DCD8
A2A2c2d2 | A2F2G6A2 | c2dcA2F2 | GAG2z4 |
Acd4c2 | d2f2d2cd | AGF2-F4 | A2G4AG | F2DCD8

@@@ Tune index: 6876
